icons/ruby-24.svg

<svg width="24" height="24" viewBox="0 0 24 24" fill="none" xmlns="http://www.w3.org/2000/svg">
<path fill-rule="evenodd" clip-rule="evenodd" d="M5.87277 3.25934C6.01523 3.09465 6.22224 3 6.44 3H17.75C17.9726 3 18.1837 3.09887 18.3262 3.26986L23.3262 9.26986C23.5683 9.56044 23.5562 9.98585 23.2979 10.2622L12.5479 21.7622C12.4061 21.9139 12.2077 22 12 22C11.7923 22 11.5939 21.9139 11.4521 21.7622L0.702105 10.2622C0.440213 9.982 0.43187 9.5494 0.682766 9.25934L5.87277 3.25934ZM6.7829 4.5L2.25848 9.73055L12 20.1517L21.75 9.72151L17.3987 4.5H6.7829Z" fill="black"/>
</svg>

<svg xmlns="http://www.w3.org/2000/svg" width="24" height="24" viewBox="0 0 24 24"><path fill-rule="evenodd" d="M5.873 3.26A.75.75 0 016.44 3h11.31a.75.75 0 01.576.27l5 6a.75.75 0 01-.028.992l-10.75 11.5a.75.75 0 01-1.096 0l-10.75-11.5a.75.75 0 01-.02-1.003l5.19-6zm.91 1.24L2.258 9.73 12 20.153l9.75-10.43L17.399 4.5H6.783z"/></svg>
